icons/share-forward-box-fill.svg

<svg viewBox="0 0 24 24" fill="currentColor" xmlns="http://www.w3.org/2000/svg">
    <path d="M9 3V5H4V19H20V10H22V20C22 20.5523 21.5523 21 21 21H3C2.44772 21 2 20.5523 2 20V4C2 3.44772 2.44772 3 3 3H9ZM16 5V1L23 7H14C12.8954 7 12 7.89543 12 9V15H10V9C10 6.79086 11.7909 5 14 5H16Z"/>
</svg>

<svg xmlns="http://www.w3.org/2000/svg" viewBox="0 0 24 24">
    <g>
        <path fill="none" d="M0 0h24v24H0z"/>
        <path d="M9 3v2H4v14h16v-9h2v10a1 1 0 0 1-1 1H3a1 1 0 0 1-1-1V4a1 1 0 0 1 1-1h6zm7 2V1l7 6h-9a2 2 0 0 0-2 2v6h-2V9a4 4 0 0 1 4-4h2z"/>
    </g>
</svg>
